www/assets/icons/dock.svg

<svg xmlns="http://www.w3.org/2000/svg" width="24" height="24" viewBox="0 0 24 24" fill='currentColor'><path d="M8 23h8v-2H8zm8-21.99L8 1c-1.1 0-2 .9-2 2v14c0 1.1.9 2 2 2h8c1.1 0 2-.9 2-2V3c0-1.1-.9-1.99-2-1.99M16 15H8V5h8z"/></svg>

<svg width="24" height="24" viewBox="0 0 24 24" xmlns="http://www.w3.org/2000/svg" fill='currentColor'><path d="M8 23H16V21H8V23ZM16 1.01L8 1C6.9 1 6 1.9 6 3V17C6 18.1 6.9 19 8 19H16C17.1 19 18 18.1 18 17V3C18 1.9 17.1 1.01 16 1.01ZM16 15H8V5H16V15Z"/></svg>
